newicons/my_honor.svg

<?xml version="1.0" encoding="UTF-8" standalone="no"?>
<svg
   viewBox="0 0 48 48"
   version="1.1"
   id="svg1"
   xml:space="preserve"
   xmlns="http://www.w3.org/2000/svg"
   xmlns:svg="http://www.w3.org/2000/svg"><path
     id="path5"
     style="fill:none;stroke:#ffffff;stroke-width:1;stroke-linecap:round;stroke-linejoin:round;stroke-dashoffset:0.5"
     d="m 15.629984,19.448897 -0.98598,-2.116757 -2.112656,-0.987892 2.112656,-0.987894 0.985979,-2.116756 0.98598,2.116756 2.112656,0.987892 -2.112656,0.987894 z" /><defs
     id="defs1"><style
       id="style1">.a{fill:none;stroke:#fff;stroke-linecap:round;stroke-linejoin:round;}</style></defs><path
     style="fill:none;stroke:#ffffff;stroke-width:1;stroke-linecap:round;stroke-linejoin:round;stroke-dashoffset:0.5"
     d="M 25.461078,37.464298 41.326089,23.089771 c 1.180983,-1.070031 1.730793,-2.379152 0.402823,-4.129184 l -6.29023,-8.289414 C 34.883806,9.9399451 34.486229,9.8669101 32.74287,9.8639645 L 14.367964,9.8329179 c -0.865046,-0.00146 -1.376298,0.3243581 -1.859182,0.9624411 L 6.0946077,19.271053 C 5.0651712,20.63135 5.5015314,21.813916 6.4044712,22.655121 L 22.300469,37.464298 c 0.865425,0.806254 1.990948,1.059773 3.160609,0 z"
     id="path2" /><path
     style="fill:none;stroke:#ffffff;stroke-width:1;stroke-linecap:round;stroke-linejoin:round;stroke-dashoffset:0.5"
     d="M 34.755148,10.073341 23.80929,38.166082 16.615963,17.33214"
     id="path3" /><path
     style="fill:none;stroke:#ffffff;stroke-width:1;stroke-linecap:round;stroke-linejoin:round;stroke-dashoffset:0.5"
     d="M 13.511662,9.9743335 15.18076,14.204014"
     id="path6" /></svg>

<?xml version="1.0" encoding="UTF-8"?><svg id="a" xmlns="http://www.w3.org/2000/svg" viewBox="0 0 48 48"><defs><style>.f{fill:none;stroke:#fff;stroke-linecap:round;stroke-linejoin:round;}</style></defs><path id="b" class="f" d="M15.63,19.4488l-.986-2.1168-2.1127-.9879,2.1127-.9879.986-2.1168.986,2.1168,2.1127.9879-2.1127.9879-.986,2.1168Z"/><path id="c" class="f" d="M25.4611,37.4642l15.865-14.3745c1.181-1.07,1.7308-2.3792.4028-4.1292l-6.2902-8.2894c-.5549-.7312-.9525-.8043-2.6958-.8072l-18.3749-.031c-.865-.0015-1.3763.3244-1.8592.9624l-6.4142,8.4757c-1.0294,1.3603-.5931,2.5429.3099,3.3841l15.896,14.8092c.8654.8063,1.9909,1.0598,3.1606,0Z"/><path id="d" class="f" d="M34.7552,10.0733l-10.9459,28.0927-7.1933-20.8339"/><path id="e" class="f" d="M13.5117,9.9742l1.6691,4.2297"/></svg>
